src/lib/packages/icons/src/assets/line/microphone-stand.svg

<svg width="24" height="24" viewBox="0 0 24 24" fill="none" xmlns="http://www.w3.org/2000/svg">
<path d="M10.4771 13.5219C10.7701 13.8149 10.7701 14.2899 10.4771 14.5829L9.48395 15.5749C9.33795 15.7209 9.14516 15.7938 8.95416 15.7938C8.76216 15.7938 8.57013 15.7209 8.42413 15.5739C8.13113 15.2809 8.13113 14.8058 8.42413 14.5128L9.41705 13.5209C9.71005 13.2289 10.1851 13.2289 10.4771 13.5219ZM20.023 11.6669L19.8721 11.818C19.8631 11.828 19.8601 11.841 19.8511 11.85C19.8421 11.859 19.8292 11.863 19.8192 11.871L19.0901 12.599C17.9801 13.71 16.8501 14.246 15.5911 14.246C15.4341 14.246 15.2699 14.2178 15.1089 14.2008L7.23395 21.0138C6.66995 21.5028 5.96595 21.7438 5.26495 21.7438C4.48995 21.7438 3.71612 21.4489 3.13312 20.8659C2.02212 19.7539 1.95617 17.9518 2.98517 16.7638L9.78912 8.8998C9.63512 7.4408 10.1469 6.16186 11.4009 4.90786L12.334 3.975C14.635 1.675 17.726 1.675 20.024 3.975C21.183 5.134 21.7801 6.49484 21.7501 7.90884C21.7211 9.26784 21.124 10.5659 20.023 11.6669ZM13.774 4.71279L19.2872 10.226C19.8902 9.49798 20.2321 8.69781 20.2501 7.87881C20.2711 6.88281 19.825 5.90001 18.963 5.03701C17.369 3.44401 15.421 3.34779 13.774 4.71279ZM13.7671 13.3798L10.6212 10.2328L4.12018 17.747C3.60318 18.344 3.63715 19.2488 4.19415 19.8068C4.75315 20.3648 5.65699 20.397 6.25299 19.881L13.7671 13.3798ZM18.0291 11.539L18.254 11.3139L12.6851 5.74502L12.46 5.96987C11.317 7.11287 11.185 8.01999 11.274 8.76699L15.231 12.724C15.979 12.814 16.8871 12.683 18.0291 11.539Z" fill="currentColor"/>
</svg>

<svg xmlns="http://www.w3.org/2000/svg" width="24" height="24" fill="none"><path fill="currentColor" d="M10.477 13.522a.75.75 0 0 1 0 1.06l-.993.993a.748.748 0 0 1-1.06-.001.75.75 0 0 1 0-1.061l.993-.992a.75.75 0 0 1 1.06 0Zm9.546-1.855-.15.151c-.01.01-.013.023-.022.032-.009.009-.022.013-.032.021l-.729.728c-1.11 1.111-2.24 1.647-3.499 1.647-.157 0-.321-.028-.482-.045l-7.875 6.813a2.999 2.999 0 0 1-1.97.73 3.008 3.008 0 0 1-2.13-.878 3.024 3.024 0 0 1-.149-4.102L9.79 8.9c-.154-1.46.358-2.738 1.612-3.992l.933-.933c2.301-2.3 5.392-2.3 7.69 0 1.159 1.159 1.756 2.52 1.726 3.934-.029 1.359-.626 2.657-1.727 3.758Zm-6.249-6.954 5.513 5.513c.603-.728.945-1.528.963-2.347.021-.996-.425-1.979-1.287-2.842-1.594-1.593-3.542-1.69-5.189-.324Zm-.007 8.667-3.146-3.147-6.5 7.514a1.52 1.52 0 0 0 .073 2.06c.56.558 1.463.59 2.059.074l7.514-6.501Zm4.262-1.841.225-.225-5.569-5.569-.225.225c-1.143 1.143-1.275 2.05-1.186 2.797l3.957 3.957c.748.09 1.656-.041 2.798-1.185Z"/></svg>
